X: 3
%%etbk:tnset id:1,pos:3,rep:3x,ant:
%%etbk:wsite http://www.thesession.org/tunes/display/3270
%%etbk:pldat 2016-07-15T13:50,2016-05-25T15:06,2016-03-14T17:58,2016-02-10T17:44,2015-11-24T18:28,2015-10-13T17:50,2015-05-28T18:45,2015-05-15T15:39,2015-03-23T18:12,2015-01-18T10:51,2015-01-08T19:13,2014-12-31T14:43,2014-12-11T18:07,2014-09-22T18:08,2014-09-16T18:08,2014-09-11T18:10,2014-05-14T15:22,2014-05-04T10:38,2014-04-12T15:59,2014-03-25T15:41,2014-02-15T15:29,2013-11-17T14:52,2013-11-03T14:52,2013-10-05T14:41,2013-08-28T15:21,2013-05-21T15:26,2013-05-10T16:22,2013-05-01T17:06
T: Road To Cashel, The
Z: Piano Box Version by Martin Fleischmann
H: Created 2013-02-19 /  Last Modified 2013-02-19
M: 4/4
L: 1/8
R: Reel
K: Edor
|: "em"!2!F!1!EE!2!D !1!E3!5!B | !2!F!1!E!2!E!1!E !2!F2!4!A!5!B | !2!F!1!EE!2!D !1!E2!5!B!4!A |1 "D"!2!F!1!D-DD !4!B!5!d!3!A!4!B:|2 "D"!2!F!1!D-DD !2!B!4!d!1!A!4!d||
"em"!2!B!1!A!2!B!4!d !2!e!4!gfe | "D"!1!d2!4!a!5!b !4!a!3!f!2!e!1!d | "em"!2!B!1!d !4!g!2!e "bm"!3!f{g}ffe | !1!d!2!B!1!A!2!F "em"{A}F!1!EE2 |
"em"!2!B!1!A!2!B!4!d !2!e!4!gfe | "D"!1!d2!4!a!5!b !4!a!3!f!2!ef | !5!b!3!f!2!f!2!f !4!a!3!f!2!f!3!f|!5!b!3!f!4!a!3!f !2!e!1!d!2!B!1!A||


